assets/football/football-fill.svg

<svg id="Raw" xmlns="http://www.w3.org/2000/svg" viewBox="0 0 256 256">
  <rect width="256" height="256" fill="none"/>
  <path d="M225.98,56.31055a32.13113,32.13113,0,0,0-26.29-26.29053c-31.35058-5.30908-90.43652-7.72363-133.915,35.75439-43.478,43.478-41.064,102.56446-35.75488,133.915a32.13113,32.13113,0,0,0,26.29,26.29053,200.74409,200.74409,0,0,0,33.27637,2.83984c31.082,0,69.78955-7.74511,100.63867-38.59423C233.70361,146.74756,231.28906,87.66113,225.98,56.31055Zm-166.998,153.894a16.11587,16.11587,0,0,1-13.18652-13.18652,184.687,184.687,0,0,1-2.68555-30.59473l46.48267,46.48291A185.002,185.002,0,0,1,58.98193,210.20459ZM165.65674,101.65674,150.6272,116.68652l8.97046,8.97022a8,8,0,0,1-11.31348,11.314L139.31372,128l-11.314,11.314,8.97045,8.97022a7.99983,7.99983,0,1,1-11.31347,11.31348l-8.97046-8.97022-15.02954,15.0293a7.99984,7.99984,0,0,1-11.31348-11.31348l15.02954-15.02978-8.97046-8.97022a8,8,0,0,1,11.31348-11.314L116.68628,128l11.314-11.314-8.97045-8.97022a7.99983,7.99983,0,1,1,11.31347-11.31348l8.97046,8.97022,15.02954-15.0293a7.99984,7.99984,0,0,1,11.31348,11.31348Zm.75024-58.563a185.0087,185.0087,0,0,1,30.61109,2.70166,16.11531,16.11531,0,0,1,13.18652,13.18652,184.687,184.687,0,0,1,2.68555,30.59473Z"/>
</svg>

<svg xmlns="http://www.w3.org/2000/svg" viewBox="0 0 256 256"><rect width="256" height="256" fill="none"/><path d="M226,56.3A32.3,32.3,0,0,0,199.7,30c-31.4-5.3-90.4-7.7-133.9,35.8S24.7,168.3,30,199.7A32.3,32.3,0,0,0,56.3,226a206.3,206.3,0,0,0,33.3,2.8c31.1,0,69.8-7.7,100.6-38.6C233.7,146.7,231.3,87.7,226,56.3ZM59,210.2A15.9,15.9,0,0,1,45.8,197a178.7,178.7,0,0,1-2.7-30.6l46.5,46.5A179.5,179.5,0,0,1,59,210.2ZM165.7,101.7l-15.1,15,9,9a8,8,0,0,1,0,11.3,8.3,8.3,0,0,1-5.7,2.3,8,8,0,0,1-5.6-2.3l-9-9L128,139.3l9,9a8,8,0,0,1,0,11.3,7.8,7.8,0,0,1-5.7,2.3,7.6,7.6,0,0,1-5.6-2.3l-9-9-15,15.1a8.2,8.2,0,0,1-11.4,0,8.1,8.1,0,0,1,0-11.4l15.1-15-9-9A8,8,0,0,1,107.7,119l9,9L128,116.7l-9-9a8,8,0,0,1,11.3-11.3l9,9,15-15.1a8.1,8.1,0,0,1,11.4,11.4Zm.7-58.6A179.5,179.5,0,0,1,197,45.8,15.9,15.9,0,0,1,210.2,59a178.7,178.7,0,0,1,2.7,30.6Z"/></svg>
